## Title : m0609_gear_test
## Time : 2025-02-05 18:17:27
Global_a1 = posx(372.70,-45.33,55.73,72.28,-178.93,70.14)
Global_a2 = posx(268.28,-51.35,55.63,71.22,-178.77,69.35)
Global_a3 = posx(325.46,-138.95,52.73,61.19,-177.65,58.75)
Global_b1 = posx(573.79,-100.95,59.70,65.31,-177.55,62.93)
Global_b2 = posx(486.43,-159.29,59.70,62.51,-177.22,60.16)
Global_b3 = posx(579.91,-205.44,59.70,64.43,-176.88,62.17)
Global_high = posx(325.46,-138.95,252.73,61.18,-177.65,58.74)
Global_middle = posx(320.84,-80.34,58.02,4.48,-178.98,3.62)
Global_last = posx(544.38,-154.07,53.06,63.57,-178.12,65.94)

set_singular_handling(DR_AVOID)
set_velj(60.0)
set_accj(100.0)
set_velx(250.0, 80.625)
set_accx(1000.0, 322.5)
gLoop181727469 = 0
while gLoop181727469 < 1:
    # CustomCodeNode
    
    a=[0,0,0,0,0,0]
    base = posj(0,0,90,0,90,0)
    movej(base,100,100)
    
    def grip():
    	set_digital_output(1,ON)
    	set_digital_output(2,OFF)
    
    def release():
    	set_digital_output(2,ON)
    	set_digital_output(1,OFF)
    release()
    
    def forcing_middle():
    	task_compliance_ctrl(stx=[500,500,500,100,100,100], time = 0.1)
    	fd = [0,0,-10,0,0,0]
    	fctrl_dir = [0,0,1,0,0,0]
    	set_desired_force(fd, dir = fctrl_dir, mod = DR_FC_MOD_REL)
    
    def pap(a,b):
    	a1=trans(a,[0,0,150,0,0,0],DR_BASE,DR_BASE)
    	movel(a1,100,100)
    	movel(a,100,100)
    	grip()
    	movel(a1,100,100)
    
    	b1=trans(b, [0,0,150,0,0,0],DR_BASE,DR_BASE)
    	movel(b1,100,100)
    	movel(b,100,100)
    	release()
    	movel(b1,100,100)
    
    def pap_middle():
    	mf_trans=trans(Global_middle,[0,0,150,0,0,0],DR_BASE,DR_BASE)
    	movel(mf_trans,100,100)
    	movel(Global_middle,100,100)
    	grip()
    	movel(mf_trans,100,100)
    
    	ml_trans=trans(Global_last, [0,0,70,0,0,0],DR_BASE,DR_BASE)
    	movel(ml_trans,100,100)
    
    def middle_last():
    	th_id = thread_run(forcing_middle, loop = True)
    	while True:
    		CON_POSE = check_position_condition(DR_AXIS_Z, min = Global_last[2], max = Global_last[2]+10)
    
    		if get_tool_force(DR_BASE)[2] > 9 :
    			pt=trans(Global_last,[0,0,0,0,0,10],DR_TOOL,DR_BASE)
    			movel(pt,100,100)
    			if CON_POSE == True:
    				release()
    				thread_stop(th_id)
    				release_compliance_ctrl()
    		movel(Global_last,100,100)
    
    
    #pap(Global_a1,Global_b1)
    #pap(Global_a2,Global_b2)
    #pap(Global_a3,Global_b3)
    pap_middle()
    middle_last()
    
    gLoop181727469 = gLoop181727469 + 1
    break
